X: 11336
T: Eanach Dhúin
R: waltz
M: 3/4
K: Edorian
E EF|G2 FE FE|d2 ef ed|B2AF EF|
D2>E2 EF|G2 FE FE|d2 ef ed|B2AF EE|
E2>B2 Bc/d/|e2fe d/B/c|d2 ef ed|B2AF EF|
D3 DE F|G2 FE FE|d2 ef ed|B2AF EE|E3||

